X:173
M:6/8
L:1/8
K:D
|: A | Ace =gfe | dcB ^A2F | Bba gfe | d2c B2c | dfd gec | Bed c2G | FAd ceg | afc d3 :|

